outputs/icons/navigation/hamburger_menu_navigation_rail_round.svg

<svg xmlns="http://www.w3.org/2000/svg" width="1200" height="1200" fill="none"><g clip-path="url(#a)"><path fill="#000" d="M200 900h300c27.5 0 50-22.5 50-50s-22.5-50-50-50H200c-27.5 0-50 22.5-50 50s22.5 50 50 50m0-250h300c27.5 0 50-22.5 50-50s-22.5-50-50-50H200c-27.5 0-50 22.5-50 50s22.5 50 50 50m-50-300c0 27.5 22.5 50 50 50h300c27.5 0 50-22.5 50-50s-22.5-50-50-50H200c-27.5 0-50 22.5-50 50"/></g><defs><clipPath id="a"><path fill="#fff" d="M0 0h1200v1200H0z"/></clipPath></defs></svg>

<svg width="1200" height="1200" viewBox="0 0 1200 1200" fill="none" xmlns="http://www.w3.org/2000/svg"><g clip-path="url(#clip0_662_1863)"><path d="M200 900H500C527.5 900 550 877.5 550 850C550 822.5 527.5 800 500 800H200C172.5 800 150 822.5 150 850C150 877.5 172.5 900 200 900ZM200 650H500C527.5 650 550 627.5 550 600C550 572.5 527.5 550 500 550H200C172.5 550 150 572.5 150 600C150 627.5 172.5 650 200 650ZM150 350C150 377.5 172.5 400 200 400H500C527.5 400 550 377.5 550 350C550 322.5 527.5 300 500 300H200C172.5 300 150 322.5 150 350Z" fill="#1D1E23"/></g><defs><clipPath id="clip0_662_1863"><path width="24" fill="white" d="M0 0H1200V1200H0V0z"/></clipPath></defs></svg>
